flaticon/delivery/delivery-1.svg

<svg xmlns="http://www.w3.org/2000/svg" width="32" height="32" viewBox="0 0 24 24">
    <path d="M 23.777344 11.519531 C 23.054688 10.558594 22.335938 10.558594 20.574219 11.480469 L 20.011719 11.824219 L 20.011719 4.796875 C 20.011719 4.382812 19.855469 4.007812 19.597656 3.722656 C 19.578125 3.691406 19.558594 3.660156 19.535156 3.632812 C 19.421875 3.535156 19.300781 3.453125 19.175781 3.386719 C 19.175781 3.386719 19.175781 3.386719 19.171875 3.386719 C 19.160156 3.378906 19.148438 3.375 19.132812 3.367188 C 18.9375 3.269531 18.71875 3.207031 18.488281 3.195312 C 18.464844 3.195312 18.4375 3.195312 18.414062 3.195312 L 5.605469 3.195312 C 5.578125 3.195312 5.554688 3.195312 5.527344 3.195312 C 4.683594 3.234375 4.003906 3.941406 4.003906 4.796875 L 4.003906 10.574219 C 3.539062 10.789062 3.121094 11.035156 2.800781 11.238281 L 2.800781 10.398438 L 0 10.398438 L 0 20.804688 L 2.800781 20.804688 L 2.800781 19.605469 L 8.003906 19.605469 C 8.804688 19.605469 9.648438 19.523438 10.445312 19.484375 L 15.652344 18.683594 C 15.851562 18.683594 16.050781 18.644531 16.210938 18.605469 C 16.691406 18.523438 17.132812 18.285156 17.53125 17.925781 L 23.574219 13.121094 C 24.054688 12.71875 24.136719 12 23.777344 11.519531 Z M 17.582031 13.324219 L 17.089844 13.601562 C 16.617188 13.878906 15.558594 13.960938 14.570312 13.960938 C 14.769531 13.601562 14.691406 13.160156 14.328125 12.640625 C 13.6875 11.71875 12.609375 11.160156 11.449219 11.160156 L 9.886719 11.160156 C 9.046875 11.160156 8.246094 10.917969 7.605469 10.4375 C 7.238281 10.164062 6.816406 10.035156 6.378906 10.007812 C 6.308594 10 6.238281 10 6.164062 10 C 5.765625 10 5.324219 10.078125 4.804688 10.238281 L 4.804688 4.796875 C 4.804688 4.703125 4.820312 4.613281 4.851562 4.527344 L 10.96875 10 C 11.289062 10.277344 11.648438 10.398438 12.007812 10.398438 C 12.367188 10.398438 12.730469 10.277344 13.050781 10.039062 L 19.164062 4.527344 C 19.195312 4.609375 19.214844 4.699219 19.214844 4.796875 L 19.214844 12.320312 Z M 18.371094 3.996094 C 18.382812 3.996094 18.398438 3.996094 18.414062 3.996094 C 18.449219 3.996094 18.488281 4 18.523438 4.003906 L 12.527344 9.398438 C 12.25 9.636719 11.808594 9.636719 11.527344 9.398438 L 5.492188 4.003906 C 5.53125 4 5.566406 3.996094 5.605469 3.996094 Z M 2 20.003906 L 0.800781 20.003906 L 0.800781 11.199219 L 2 11.199219 Z M 23.09375 12.558594 L 17.011719 17.285156 L 16.972656 17.324219 C 16.730469 17.605469 16.410156 17.765625 16.050781 17.804688 C 15.890625 17.84375 15.769531 17.84375 15.609375 17.84375 L 10.328125 18.644531 C 9.566406 18.765625 8.765625 18.804688 8.003906 18.804688 L 2.800781 18.804688 L 2.800781 12.199219 C 3.191406 11.925781 3.785156 11.554688 4.433594 11.265625 C 4.476562 11.261719 4.523438 11.253906 4.5625 11.238281 C 5.363281 10.878906 6.445312 10.597656 7.125 11.121094 C 7.886719 11.679688 8.847656 12 9.886719 12 L 11.449219 12 C 12.367188 12 13.167969 12.398438 13.6875 13.160156 C 13.886719 13.394531 13.925781 13.628906 13.890625 13.714844 C 13.890625 13.71875 13.890625 13.71875 13.890625 13.722656 C 13.851562 13.78125 13.78125 13.832031 13.683594 13.875 C 13.683594 13.875 13.679688 13.875 13.679688 13.878906 C 13.667969 13.882812 13.652344 13.886719 13.640625 13.890625 C 13.628906 13.894531 13.617188 13.898438 13.605469 13.902344 C 13.601562 13.90625 13.597656 13.90625 13.59375 13.90625 C 13.53125 13.929688 13.457031 13.949219 13.375 13.964844 C 13.375 13.964844 13.375 13.964844 13.371094 13.964844 C 13.347656 13.96875 13.316406 13.976562 13.289062 13.980469 C 13.285156 13.980469 13.277344 13.980469 13.273438 13.984375 C 13.25 13.988281 13.222656 13.992188 13.195312 13.996094 C 13.191406 13.996094 13.183594 13.996094 13.175781 14 C 13.046875 14.015625 12.894531 14.03125 12.730469 14.042969 C 12.597656 14.042969 12.472656 14.042969 12.367188 14.042969 C 12.355469 14.042969 12.339844 14.042969 12.328125 14.042969 L 8.484375 14.042969 C 7.246094 14.042969 6.484375 14.640625 6.484375 15.640625 C 6.484375 15.882812 6.644531 16.042969 6.882812 16.042969 C 7.125 16.042969 7.285156 15.882812 7.285156 15.640625 C 7.285156 15.441406 7.285156 14.84375 8.484375 14.84375 L 12.289062 14.84375 C 12.3125 14.84375 12.339844 14.84375 12.367188 14.84375 C 12.460938 14.84375 12.578125 14.84375 12.730469 14.84375 C 12.753906 14.84375 12.78125 14.84375 12.808594 14.84375 C 12.847656 14.84375 12.929688 14.84375 13.007812 14.84375 C 14.890625 14.882812 16.652344 14.84375 17.570312 14.363281 L 21.015625 12.238281 C 22.695312 11.398438 22.855469 11.601562 23.175781 12.078125 C 23.253906 12.199219 23.253906 12.441406 23.09375 12.558594 Z M 23.09375 12.558594"/>
</svg>

<svg xmlns="http://www.w3.org/2000/svg" width="32" height="32" viewBox="0 0 24 24">
    <path d="M23.777 11.52c-.722-.961-1.441-.961-3.203-.04l-.562.344V4.797c0-.414-.157-.79-.414-1.074-.02-.032-.04-.063-.063-.09a1.957 1.957 0 0 0-.36-.246h-.003c-.012-.008-.024-.012-.04-.02a1.628 1.628 0 0 0-.644-.172H5.527a1.607 1.607 0 0 0-1.523 1.602v5.777c-.465.215-.883.461-1.203.664v-.84H0v10.407h2.8v-1.2h5.204c.8 0 1.644-.082 2.441-.12l5.207-.801c.2 0 .399-.04.559-.079.48-.082.922-.32 1.32-.68l6.043-4.804c.48-.402.563-1.121.203-1.601zm-6.195 1.804l-.492.278c-.473.277-1.531.359-2.52.359.2-.36.121-.8-.242-1.32a3.502 3.502 0 0 0-2.879-1.48H9.887c-.84 0-1.64-.243-2.282-.723a2.251 2.251 0 0 0-1.226-.43C6.309 10 6.239 10 6.164 10c-.398 0-.84.078-1.36.238V4.797c0-.094.016-.184.048-.27L10.969 10c.32.277.68.398 1.039.398.36 0 .722-.12 1.043-.359l6.113-5.512c.031.082.05.172.05.27v7.523zm.79-9.328h.042c.035 0 .074.004.11.008l-5.997 5.394a.789.789 0 0 1-1 0L5.492 4.004c.04-.004.074-.008.113-.008zM2 20.004H.8v-8.805H2zm21.094-7.445l-6.082 4.726-.04.04a1.39 1.39 0 0 1-.921.48c-.16.039-.281.039-.442.039l-5.28.8c-.763.122-1.563.16-2.325.16H2.8V12.2c.39-.273.984-.644 1.633-.933a.474.474 0 0 0 .128-.028c.801-.36 1.883-.64 2.563-.117A4.655 4.655 0 0 0 9.887 12h1.562c.918 0 1.719.398 2.239 1.16.199.235.238.469.203.555v.008a.469.469 0 0 1-.207.152s-.004 0-.004.004l-.04.012-.035.011c-.003.004-.007.004-.011.004a1.355 1.355 0 0 1-.219.059h-.004c-.023.004-.055.012-.082.015-.004 0-.012 0-.016.004l-.078.012c-.004 0-.011 0-.02.004a9.154 9.154 0 0 1-.445.043H8.484c-1.238 0-2 .598-2 1.598 0 .242.16.402.399.402.242 0 .402-.16.402-.402 0-.2 0-.797 1.2-.797H13.007c1.883.039 3.644 0 4.562-.48l3.446-2.126c1.68-.84 1.84-.636 2.16-.16.078.121.078.363-.082.48zm0 0"/>
</svg>
